X: 22085
T: Knocknagree, The
R: polka
M: 2/4
K: Gmajor
|:B,>D ED|B,D DE/D/|B,D GB|A/B/A/G/ EG|
B,D ED|B,D DE/D/|dc/d/ GB|AB/A/ G2:|
|:de/d/ GB/d/|ed e/f/g/e/|dB/d/ eB|dB AB|
de/d/ GB/d/|ed e/f/g/e/|dB AG/A/|BG G2:|

